X: 484
T: Where Are You Going Love?
N:"Moderate" "collected by J.O'Neill"
N:Irish title: ca ra.cai.d tu a .gra.d?
B:O'Neill's 484
Z:Transcribed by henrik.norbeck@mailbox.swipnet.se
M:3/4
L:1/8
K:G
d gf | g2 ag (f{a}g/e/) | d>B GD (G/A/B/).d/ | (c>A) (F>A) GG | G3 d gf |
g2 ag (f{a}g/e/) | d>B GA (B/d/f/e/) | (d>c) (A>F) GG | G3 ||
(A/B/) cB | A>B cd .e/.f/.g/.b/ | a>f dd (e/f/g/).e/ | a2 (bg) (~fe) | d3 (e/f/) gf |
g2 ag (f{a}g/e/) | d>B GA (B/d/f/e/) | (d>c) (A>F) GG | G3 ||


